packages/gestalt/src/icons/bell.svg

<svg width="24" height="24" xmlns="http://www.w3.org/2000/svg"><path fill="#aeaeae" d="M12 24c-1.66 0-3-1.34-3-3h6c0 1.66-1.34 3-3 3zm7-10.83c1.58 1.52 2.67 3.55 3 5.83H2c.33-2.28 1.42-4.31 3-5.83V7c0-3.87 3.13-7 7-7s7 3.13 7 7v6.17z"/></svg>

<svg width="24" height="24" viewBox="0 0 24 24" xmlns="http://www.w3.org/2000/svg"><path fill="#aeaeae" d="M12.00,24.00 C10.34,24.00 9.00,22.66 9.00,21.00 L15.00,21.00 C15.00,22.66 13.66,24.00 12.00,24.00 Z M19.00,13.17 C20.58,14.69 21.67,16.72 22.00,19.00 L2.00,19.00 C2.33,16.72 3.42,14.69 5.00,13.17 L5.00,7.00 C5.00,3.13 8.13,0.00 12.00,0.00 C15.87,0.00 19.00,3.13 19.00,7.00 L19.00,13.17 Z"/></svg>
